!!!OTL: ALLES WAS IN LUEFTEN SCHWEBET
!!!ARE: Europa, Mitteleuropa, Deutschland, Altenburg
!!!SCT: E1781
!!!YEM: Copyright 1995, estate of Helmut Schaffrath.
**kern
*ICvox
*Ivox
*M3/4
*k[b-]
*F:
{8f
8g
=1
4a
4a
8b-
8b-
=2
4ee
4cc}
{8ff
8dd
=3
4.cc
8b-
8a
8f
=4
2g}
{8f
8a
=5
4.cc
8b-
8a
8f
=6
4a
4g}
{8f
8a
=7
4.cc
8b-
8a
8f
=8
4a
4g
4r}
=9
{8cc
8cc
8ff
8dd
8dd
8cc
=10
8cc
8cc
8ff
8dd
8dd
8cc}
=11
{8dd
16cc
16b-
4a
12cc
12b-
12g
=12
4g
4f}
==
!!!AGN: Scherz - Lied
!!!ONB: ESAC (Essen Associative Code) Database: ERK3
!!!AMT: simple triple
!!!AIN: vox
!!!EED: Helmut Schaffrath
!!!EEV: 1.0
*-
